icons/mouse-apple.svg

<svg width="24" height="24" viewBox="0 0 24 24" fill="none" xmlns="http://www.w3.org/2000/svg">
<path fill-rule="evenodd" clip-rule="evenodd" d="M9.10005 3.65002C7.11426 3.65002 5.55005 5.21424 5.55005 7.20002V16.8C5.55005 18.7858 7.11426 20.35 9.10005 20.35H14.9C16.7858 20.35 18.45 18.6858 18.45 16.8V7.20002C18.45 5.21424 16.8858 3.65002 14.9 3.65002H9.10005ZM4.05005 7.20002C4.05005 4.38581 6.28583 2.15002 9.10005 2.15002H14.9C17.7143 2.15002 19.95 4.38581 19.95 7.20002V16.8C19.95 19.5142 17.6143 21.85 14.9 21.85H9.10005C6.28583 21.85 4.05005 19.6142 4.05005 16.8V7.20002Z" fill="black"/>
<path fill-rule="evenodd" clip-rule="evenodd" d="M8.56977 6.36969C8.86266 6.0768 9.33753 6.0768 9.63043 6.36969C10.9375 7.6768 12.9627 7.6768 14.2698 6.36969C14.5627 6.0768 15.0375 6.0768 15.3304 6.36969C15.6233 6.66259 15.6233 7.13746 15.3304 7.43035C13.4375 9.32325 10.4627 9.32325 8.56977 7.43035C8.27687 7.13746 8.27687 6.66259 8.56977 6.36969Z" fill="black"/>
</svg>

<svg xmlns="http://www.w3.org/2000/svg" fill="none" viewBox="0 0 24 24">
  <path fill="#000" fill-rule="evenodd" d="M9.1 3.65A3.518 3.518 0 0 0 5.55 7.2v9.6a3.518 3.518 0 0 0 3.55 3.55h5.8c1.886 0 3.55-1.664 3.55-3.55V7.2a3.518 3.518 0 0 0-3.55-3.55H9.1ZM4.05 7.2A5.018 5.018 0 0 1 9.1 2.15h5.8a5.018 5.018 0 0 1 5.05 5.05v9.6c0 2.714-2.336 5.05-5.05 5.05H9.1a5.018 5.018 0 0 1-5.05-5.05V7.2Z" clip-rule="evenodd"/>
  <path fill="#000" fill-rule="evenodd" d="M8.57 6.37a.75.75 0 0 1 1.06 0c1.307 1.307 3.333 1.307 4.64 0a.75.75 0 1 1 1.06 1.06c-1.893 1.893-4.867 1.893-6.76 0a.75.75 0 0 1 0-1.06Z" clip-rule="evenodd"/>
</svg>
